X:1
T:Two Lovers Discoursing
M:4/4
L:1/8
K:E
G-A| B3 AG z F/2- G3/2| A3 GB z F2| G3 F E2 D2| E3 z z2|B-c| =d2d-AB-cd-e|\
 e4 B2 B3/2 c/2| =d2 d4 z B/2F/2| F z z4| F3/2 F/2| G2 G2B-c =d2| e4 A2 B2|\
 c/2 c3/2- c z B/2- G3/2 F2| F4 z2| B2| B3 BE zE-F| F3 GA z B,3/2- C/2|\
 C2 z D E2 E2| E2 z4||
